img/svg/vector.svg

<svg width="43" height="43" viewBox="0 0 43 43" fill="none" xmlns="http://www.w3.org/2000/svg">
<g clip-path="url(#clip0)">
<path d="M11.8123 5.06845C11.3892 5.31083 10.9696 5.57305 10.5643 5.84946C10.2404 6.06987 10.1567 6.51069 10.3772 6.83387C10.5139 7.03585 10.7372 7.14429 10.964 7.14429C11.1015 7.14429 11.2404 7.1046 11.3623 7.02168C11.7372 6.76654 12.1263 6.52345 12.5175 6.29878C12.857 6.10459 12.9746 5.67086 12.7804 5.33138C12.5855 4.9912 12.1525 4.87355 11.8123 5.06845Z" fill="white"/>
<path d="M30.6821 5.78775C30.4702 6.1166 30.5652 6.55529 30.894 6.7672C31.276 7.01312 31.6516 7.27606 32.0117 7.54821C32.1399 7.6453 32.2902 7.69208 32.439 7.69208C32.6538 7.69208 32.8657 7.59498 33.0046 7.41142C33.2406 7.09959 33.1796 6.65522 32.8671 6.41851C32.4794 6.12439 32.0733 5.84161 31.6616 5.57585C31.3334 5.36323 30.894 5.4582 30.6821 5.78775Z" fill="white"/>
<path d="M40.3999 20.2058C40.3702 19.8153 40.0293 19.5268 39.6402 19.5524C39.2497 19.5821 38.957 19.9216 38.9868 20.3121C39.0031 20.5283 39.0031 20.7473 39.0116 20.9655H36.9116V26.6353H42.5814V20.9655H40.4283C40.4191 20.7118 40.4191 20.4567 40.3999 20.2058ZM41.1639 25.2179H38.3291V22.383H41.1639V25.2179Z" fill="white"/>
<path d="M3.39842 14.9544C3.22691 15.4108 3.07099 15.8807 2.93492 16.3513C2.82577 16.7269 3.04264 17.1203 3.41897 17.2287C3.48488 17.2478 3.55079 17.257 3.616 17.257C3.92358 17.257 4.20636 17.0551 4.29636 16.7446C4.42252 16.3088 4.56639 15.8736 4.72514 15.4519C4.86263 15.0862 4.67766 14.6773 4.31054 14.5398C3.94626 14.4023 3.53591 14.5873 3.39842 14.9544Z" fill="white"/>
<path d="M38.6714 15.4191C38.2986 15.5375 38.0923 15.9365 38.2107 16.3093C38.3468 16.7373 38.468 17.1789 38.5721 17.6218C38.648 17.9485 38.94 18.1689 39.2617 18.1689C39.3149 18.1689 39.3694 18.1633 39.424 18.1505C39.8053 18.0619 40.042 17.6806 39.9527 17.2993C39.8414 16.821 39.7096 16.3433 39.5622 15.8798C39.4424 15.507 39.0434 15.3015 38.6714 15.4191Z" fill="white"/>
<path d="M35.0676 8.36756C34.7947 8.08549 34.3461 8.07982 34.0654 8.35197C33.7848 8.62412 33.7777 9.07274 34.0505 9.3541C34.3645 9.67869 34.6707 10.0196 34.9598 10.3683C35.0995 10.5369 35.3014 10.6241 35.5063 10.6241C35.6657 10.6241 35.8259 10.5703 35.9584 10.4611C36.2596 10.2109 36.3007 9.76445 36.0513 9.46324C35.738 9.0862 35.4077 8.71767 35.0676 8.36756Z" fill="white"/>
<path d="M9.23472 8.7211C9.52104 8.45392 9.53663 8.0053 9.26945 7.71898C9.00226 7.43266 8.55364 7.41777 8.26732 7.68425C7.91013 8.01735 7.56144 8.36887 7.23047 8.7289C6.96541 9.01664 6.98454 9.46526 7.27299 9.73032C7.40906 9.85505 7.58128 9.91742 7.75208 9.91742C7.94344 9.91742 8.13479 9.84017 8.27441 9.6885C8.58057 9.3547 8.90375 9.0294 9.23472 8.7211Z" fill="white"/>
<path d="M37.823 14.1782C37.9286 14.1782 38.037 14.1541 38.1377 14.1038C38.4885 13.9294 38.6309 13.5042 38.4566 13.1534C38.2369 12.7133 37.9988 12.2788 37.7486 11.8614C37.5473 11.5262 37.1129 11.417 36.7762 11.6183C36.4403 11.8203 36.3319 12.2554 36.5331 12.5907C36.7649 12.9762 36.9853 13.378 37.1873 13.7848C37.3113 14.0343 37.5629 14.1782 37.823 14.1782Z" fill="white"/>
<path d="M3.62456 20.7673C3.64795 20.313 3.68835 19.8566 3.74504 19.4094C3.79394 19.021 3.51967 18.6667 3.13129 18.6171C2.75 18.5703 2.38856 18.8417 2.33895 19.2308C2.278 19.7127 2.23405 20.2053 2.20925 20.695C2.20429 20.7907 2.21988 20.8814 2.24965 20.9657H0.0582886V26.6355H5.72804V20.9657H3.57495C3.59763 20.902 3.62102 20.8382 3.62456 20.7673ZM4.3106 25.2181H1.47573V22.3832H4.3106V25.2181Z" fill="white"/>
<path d="M5.41277 11.0378C5.14063 11.4432 4.88124 11.8649 4.64098 12.2909C4.44892 12.6317 4.56869 13.0641 4.91029 13.2561C5.02014 13.3178 5.13992 13.3476 5.25756 13.3476C5.50491 13.3476 5.74516 13.2179 5.87557 12.9868C6.0974 12.5928 6.33836 12.203 6.58995 11.8274C6.80824 11.5021 6.72107 11.0619 6.39647 10.8437C6.06976 10.6254 5.63035 10.7125 5.41277 11.0378Z" fill="white"/>
<path d="M2.89316 6.08284C4.20996 6.08284 5.3106 5.17568 5.6274 3.95668H14.2334C14.0335 4.14803 13.9563 4.44782 14.0619 4.7221C14.1696 5.00417 14.4389 5.1778 14.7238 5.1778C14.8081 5.1778 14.8939 5.16292 14.9775 5.13032C15.4006 4.96802 15.8344 4.82061 16.2674 4.69233C16.5941 4.59523 16.784 4.2834 16.7578 3.95668H18.3985C18.429 3.98148 18.451 4.01621 18.485 4.03535V4.42869V6.08284H21.0838H22.5013H24.1547V4.19268C24.3057 4.21678 24.4573 4.23804 24.6069 4.26639C24.6515 4.27489 24.6955 4.27844 24.7387 4.27844C24.979 4.27844 25.1972 4.15229 25.3262 3.95668H26.8705C26.8486 3.99424 26.8188 4.02542 26.8039 4.06724C26.6728 4.43648 26.8656 4.84116 27.2348 4.97227C27.6629 5.12394 28.0881 5.29403 28.4999 5.47617C28.5934 5.51799 28.6912 5.53712 28.7869 5.53712C29.0583 5.53712 29.3184 5.37979 29.4354 5.11543C29.5941 4.75753 29.4326 4.33868 29.0746 4.18063C28.8918 4.09913 28.6997 4.03251 28.5126 3.95668H37.013C37.3298 5.17568 38.4297 6.08284 39.7472 6.08284C41.3107 6.08284 42.5821 4.81139 42.5821 3.24796C42.5821 1.68453 41.3107 0.413086 39.7472 0.413086C38.4297 0.413086 37.3298 1.32025 37.013 2.53924H24.1547V0.413086H18.485V2.53924H5.6274C5.3106 1.32025 4.20996 0.413086 2.89316 0.413086C1.32973 0.413086 0.0582886 1.68453 0.0582886 3.24796C0.0582886 4.81139 1.32973 6.08284 2.89316 6.08284ZM39.7465 1.83052C40.5283 1.83052 41.164 2.46624 41.164 3.24796C41.164 4.02968 40.5283 4.6654 39.7465 4.6654C38.9648 4.6654 38.3291 4.02968 38.3291 3.24796C38.3291 2.46624 38.9648 1.83052 39.7465 1.83052ZM19.9024 1.83052H22.7373V2.57822V3.48396V4.6654H22.5013H21.0838H19.9024V4.42939V2.57893V1.83052ZM2.89316 1.83052C3.67488 1.83052 4.3106 2.46624 4.3106 3.24796C4.3106 4.02968 3.67488 4.6654 2.89316 4.6654C2.11145 4.6654 1.47573 4.02968 1.47573 3.24796C1.47573 2.46624 2.11145 1.83052 2.89316 1.83052Z" fill="white"/>
<path d="M22.0285 7.49998C22.0285 7.10877 21.711 6.79126 21.3198 6.79126C20.9286 6.79126 20.6111 7.10877 20.6111 7.49998V7.9975L7.96118 27.3441H11.5707C13.8194 27.3441 15.6494 29.174 15.6494 31.4235V33.7226V35.14V38.6836H17.0668V42.2272H25.5714V38.6836H26.9889V35.14V33.7226V31.4235C26.9889 29.174 28.8188 27.3441 31.0682 27.3441H34.6777L22.0285 7.9975V7.49998ZM21.3198 24.5092C22.1015 24.5092 22.7373 25.1449 22.7373 25.9267C22.7373 26.7084 22.1015 27.3441 21.3198 27.3441C20.5381 27.3441 19.9024 26.7084 19.9024 25.9267C19.9024 25.1449 20.5381 24.5092 21.3198 24.5092ZM24.1547 40.8098H18.4849V38.6836H24.1547V40.8098ZM25.5721 37.2662H17.0675V35.14H25.5721V37.2662ZM31.069 25.9267C28.0378 25.9267 25.5721 28.3923 25.5721 31.4235V33.7226H17.0675V31.4235C17.0675 28.393 14.6019 25.9267 11.5714 25.9267H10.582L20.6111 10.5879V23.1924C19.3921 23.5092 18.4849 24.6099 18.4849 25.9267C18.4849 27.4901 19.7564 28.7615 21.3198 28.7615C22.8833 28.7615 24.1547 27.4901 24.1547 25.9267C24.1547 24.6099 23.2475 23.5092 22.0285 23.1924V10.5879L32.0576 25.9267H31.069Z" fill="white"/>
</g>
<defs>
<clipPath id="clip0">
<rect width="42.5231" height="42.5231" fill="white" transform="translate(0.0582886 0.0583496)"/>
</clipPath>
</defs>
</svg>

<svg width="43" height="43" viewBox="0 0 43 43" fill="none" xmlns="http://www.w3.org/2000/svg"><g clip-path="url(#a)" fill="#fff"><path d="M11.812 5.068c-.423.243-.842.505-1.248.781a.708.708 0 1 0 .798 1.173c.375-.255.764-.499 1.155-.723a.71.71 0 0 0-.705-1.23zm18.87.72a.709.709 0 0 0 .212.98c.382.245.758.508 1.118.78a.706.706 0 0 0 .993-.137.709.709 0 0 0-.138-.992 19.5 19.5 0 0 0-1.205-.843.708.708 0 0 0-.98.212zM40.4 20.206a.708.708 0 1 0-1.413.106c.016.216.016.435.025.653h-2.1v5.67h5.67v-5.67h-2.154c-.009-.253-.009-.508-.028-.76zm.764 5.012h-2.835v-2.835h2.835v2.835zM3.398 14.954c-.171.457-.327.927-.463 1.397a.708.708 0 1 0 1.361.394c.127-.436.27-.871.43-1.293a.708.708 0 1 0-1.328-.498zm35.273.466a.71.71 0 0 0-.46.89c.136.427.257.869.361 1.312a.709.709 0 0 0 1.38-.323 18.66 18.66 0 0 0-.39-1.42.711.711 0 0 0-.89-.46zm-3.603-7.052a.708.708 0 1 0-1.017.986c.313.325.62.666.909 1.014a.707.707 0 0 0 .998.093.71.71 0 0 0 .093-.998 19.06 19.06 0 0 0-.983-1.095zm-25.833.353a.709.709 0 1 0-.968-1.037c-.357.333-.706.685-1.037 1.045a.708.708 0 1 0 1.044.96c.307-.334.63-.66.96-.968zm28.588 5.457a.709.709 0 0 0 .634-1.025 19.22 19.22 0 0 0-.708-1.292.709.709 0 0 0-1.216.73c.232.385.452.787.654 1.194a.71.71 0 0 0 .636.393zM3.625 20.767c.023-.454.063-.91.12-1.358a.709.709 0 0 0-1.406-.178c-.061.482-.105.974-.13 1.464a.7.7 0 0 0 .04.27H.06v5.67h5.669v-5.67H3.575a.686.686 0 0 0 .05-.198zm.686 4.451H1.476v-2.835H4.31v2.835zm1.102-14.18c-.272.405-.532.827-.772 1.253a.708.708 0 1 0 1.235.696c.221-.394.462-.784.714-1.16a.71.71 0 0 0-1.177-.79z"/><path d="M2.893 6.083a2.832 2.832 0 0 0 2.734-2.126h8.606a.708.708 0 0 0 .744 1.173c.424-.162.857-.31 1.29-.438a.698.698 0 0 0 .49-.735h1.641c.031.024.053.06.087.078v2.048h5.67v-1.89c.15.024.302.045.452.073a.702.702 0 0 0 .72-.31h1.543c-.021.038-.051.07-.066.111a.708.708 0 0 0 .43.905c.429.152.854.322 1.266.504a.71.71 0 0 0 .575-1.296c-.183-.08-.375-.147-.562-.223h8.5a2.832 2.832 0 0 0 2.734 2.126 2.838 2.838 0 0 0 2.835-2.835A2.838 2.838 0 0 0 39.747.413a2.832 2.832 0 0 0-2.734 2.126H24.155V.413h-5.67V2.54H5.627A2.832 2.832 0 0 0 2.893.413 2.838 2.838 0 0 0 .058 3.248a2.838 2.838 0 0 0 2.835 2.835zM39.746 1.83c.782 0 1.418.635 1.418 1.417s-.636 1.417-1.418 1.417a1.419 1.419 0 0 1-1.417-1.417c0-.782.636-1.417 1.417-1.417zm-19.844 0h2.835v2.834h-2.835V1.831zm-17.009 0c.782 0 1.418.635 1.418 1.417s-.636 1.417-1.418 1.417a1.419 1.419 0 0 1-1.417-1.417c0-.782.635-1.417 1.417-1.417zM22.029 7.5a.709.709 0 0 0-1.418 0v.497L7.961 27.345h3.61a4.084 4.084 0 0 1 4.078 4.08v7.26h1.418v3.543h8.504v-3.543h1.418v-7.261a4.084 4.084 0 0 1 4.08-4.079h3.609L22.028 7.997V7.5zm-.71 17.01a1.418 1.418 0 0 1 .001 2.834 1.419 1.419 0 0 1-1.418-1.417 1.42 1.42 0 0 1 1.418-1.418zm2.836 16.3h-5.67v-2.126h5.67v2.126zm1.417-3.544h-8.505V35.14h8.505v2.126zm5.497-11.34a5.503 5.503 0 0 0-5.497 5.498v2.299h-8.505v-2.3a5.503 5.503 0 0 0-5.496-5.496h-.989l10.03-15.34v12.605a2.833 2.833 0 0 0-2.127 2.735 2.838 2.838 0 0 0 2.835 2.835 2.838 2.838 0 0 0 2.835-2.835 2.833 2.833 0 0 0-2.127-2.735V10.588l10.03 15.339h-.989z"/></g><defs><clipPath id="a"><path fill="#fff" transform="translate(.058 .058)" d="M0 0h42.523v42.523H0z"/></clipPath></defs></svg>
